img/features/choice.svg

<?xml version="1.0" encoding="UTF-8"?>
<svg width="100px" height="100px" viewBox="0 0 100 100" version="1.1" xmlns="http://www.w3.org/2000/svg" xmlns:xlink="http://www.w3.org/1999/xlink">
    <!-- Generator: Sketch 46.2 (44496) - http://www.bohemiancoding.com/sketch -->
    <title>choice</title>
    <desc>Created with Sketch.</desc>
    <defs></defs>
    <g id="Page-1" stroke="none" stroke-width="1" fill="none" fill-rule="evenodd">
        <g id="choice" fill-rule="nonzero" fill="#222222">
            <path d="M88.4177778,35.0328813 C88.1011111,35.0328813 87.79,35.0549633 87.48,35.0803575 L87.48,33.1581272 C87.48,24.8001242 80.6366667,18 72.2255556,18 L27.7744444,18 C19.3633333,18 12.52,24.8001242 12.52,33.1581272 L12.52,35.0803575 C12.21,35.0549633 11.8988889,35.0328813 11.5822222,35.0328813 C5.19555556,35.0328813 0,40.1956319 0,46.5419729 C0,51.1802781 2.84666667,55.3493427 7.06222222,57.1258324 L7.06222222,59.7348101 C7.06222222,62.4321154 8.16222222,64.8776869 9.94,66.6552807 C8.24666667,67.4358762 7.06222222,69.1295587 7.06222222,71.1036815 C7.06222222,73.8120277 9.28,76.0158024 12.0055556,76.0158024 L17.2311111,76.0158024 L17.2311111,80.3162544 C17.2311111,81.2470069 17.99,82 18.9255556,82 C19.8611111,82 20.62,81.2459028 20.62,80.3162544 L20.62,76.0158024 L79.66,76.0158024 L79.66,80.3162544 C79.66,81.2470069 80.4188889,82 81.3544444,82 C82.29,82 83.0488889,81.2459028 83.0488889,80.3162544 L83.0488889,76.0158024 L87.9922222,76.0158024 C90.7177778,76.0158024 92.9355556,73.8120277 92.9355556,71.1036815 C92.9355556,69.1295587 91.7511111,67.4358762 90.0577778,66.6552807 C91.8344444,64.8776869 92.9355556,62.4321154 92.9355556,59.7348101 L92.9355556,57.1258324 C97.1533333,55.3493427 100,51.179174 100,46.5419729 C100,40.1956319 94.8044444,35.0328813 88.4177778,35.0328813 Z M84.09,33.1581272 L84.09,35.8753062 C79.8433333,37.583342 76.8355556,41.7170755 76.8355556,46.5419729 C76.8355556,46.7318773 76.86,46.9162613 76.8688889,47.1028534 L71.4888889,47.1028534 C69.7455556,47.1028534 68.3322222,45.6984439 68.3322222,43.9661181 L68.3322222,24.5053307 C68.3322222,22.7730049 69.7455556,21.3685954 71.4888889,21.3685954 L72.2244444,21.3685954 C78.7788889,21.3685954 84.09,26.6461719 84.09,33.1581272 Z M45.7322222,47.1028534 L37.0455556,47.1028534 C35.3022222,47.1028534 33.8888889,45.6984439 33.8888889,43.9661181 L33.8888889,24.5053307 C33.8888889,22.7730049 35.3022222,21.3685954 37.0455556,21.3685954 L45.7322222,21.3685954 C47.4755556,21.3685954 48.8888889,22.7730049 48.8888889,24.5053307 L48.8888889,43.9661181 C48.8888889,45.6984439 47.4755556,47.1028534 45.7322222,47.1028534 Z M54.2677778,21.3685954 L62.9544444,21.3685954 C64.6977778,21.3685954 66.1111111,22.7730049 66.1111111,24.5053307 L66.1111111,43.9661181 C66.1111111,45.6984439 64.6977778,47.1028534 62.9544444,47.1028534 L54.2677778,47.1028534 C52.5244444,47.1028534 51.1111111,45.6984439 51.1111111,43.9661181 L51.1111111,24.5053307 C51.1111111,22.7730049 52.5244444,21.3685954 54.2677778,21.3685954 Z M15.91,33.1581272 C15.91,26.647276 21.2222222,21.3685954 27.7744444,21.3685954 L28.51,21.3685954 C30.2533333,21.3685954 31.6666667,22.7730049 31.6666667,24.5053307 L31.6666667,43.9661181 C31.6666667,45.6984439 30.2533333,47.1028534 28.51,47.1028534 L23.13,47.1028534 C23.1388889,46.9151572 23.1633333,46.7307732 23.1633333,46.5419729 C23.1633333,41.7170755 20.1566667,37.5822379 15.9088889,35.8753062 L15.9088889,33.1581272 L15.91,33.1581272 Z M7.64,53.6490356 C5.07888889,52.2435221 3.38888889,49.5384881 3.38888889,46.5419729 C3.38888889,42.0538247 7.06444444,38.4014767 11.5811111,38.4014767 C16.0977778,38.4014767 19.7733333,42.0538247 19.7733333,46.5419729 C19.7733333,46.7329814 19.7533333,46.9173654 19.74,47.1028534 L16.9477778,47.1028534 C12.6555556,47.1028534 9.00333333,49.8410102 7.64,53.6490356 Z M87.9944444,72.647207 L12.0055556,72.647207 C11.1488889,72.647207 10.4522222,71.9549391 10.4522222,71.1036815 C10.4522222,70.2524238 11.1488889,69.560156 12.0055556,69.560156 L16.9488889,69.560156 L50,69.560156 L83.0511111,69.560156 L87.9944444,69.560156 C88.8511111,69.560156 89.5477778,70.2524238 89.5477778,71.1036815 C89.5477778,71.9549391 88.8511111,72.647207 87.9944444,72.647207 Z M89.5477778,59.7348101 C89.5477778,63.294414 86.6333333,66.1904565 83.0511111,66.1904565 L50,66.1904565 L16.9488889,66.1904565 C13.3666667,66.1904565 10.4522222,63.294414 10.4522222,59.7348101 L10.4522222,56.9281993 C10.4522222,53.3685954 13.3666667,50.4725529 16.9488889,50.4725529 L50,50.4725529 L83.0511111,50.4725529 C86.6333333,50.4725529 89.5477778,53.3685954 89.5477778,56.9281993 L89.5477778,59.7348101 L89.5477778,59.7348101 Z M92.36,53.6490356 C90.9966667,49.8421143 87.3444444,47.1028534 83.0511111,47.1028534 L80.2588889,47.1028534 C80.2455556,46.9162613 80.2255556,46.7318773 80.2255556,46.5419729 C80.2255556,42.0538247 83.9011111,38.4014767 88.4177778,38.4014767 C92.9344444,38.4014767 96.61,42.0538247 96.61,46.5419729 C96.61,49.5384881 94.92,52.2435221 92.36,53.6490356 Z" id="Shape"></path>
        </g>
    </g>
</svg>

<svg width="100" height="100" viewBox="0 0 100 100" xmlns="http://www.w3.org/2000/svg"><title>choice</title><desc>Created with Sketch.</desc><path d="M88.418 35.033c-.317 0-.628.022-.938.047v-1.922c0-8.358-6.843-15.158-15.254-15.158h-44.451c-8.411 0-15.254 6.8-15.254 15.158v1.922c-.31-.025-.621-.047-.938-.047-6.387 0-11.582 5.163-11.582 11.509 0 4.638 2.847 8.807 7.062 10.584v2.609c0 2.697 1.1 5.143 2.878 6.92-1.693.781-2.878 2.474-2.878 4.448 0 2.708 2.218 4.912 4.943 4.912h5.226v4.3c0 .931.759 1.684 1.694 1.684.936 0 1.694-.754 1.694-1.684v-4.3h59.04v4.3c0 .931.759 1.684 1.694 1.684.936 0 1.694-.754 1.694-1.684v-4.3h4.943c2.726 0 4.943-2.204 4.943-4.912 0-1.974-1.184-3.668-2.878-4.448 1.777-1.778 2.878-4.223 2.878-6.92v-2.609c4.218-1.776 7.064-5.947 7.064-10.584 0-6.346-5.196-11.509-11.582-11.509zm-4.328-1.875v2.717c-4.247 1.708-7.254 5.842-7.254 10.667l.033.561h-5.38c-1.743 0-3.157-1.404-3.157-3.137v-19.461c0-1.732 1.413-3.137 3.157-3.137h.736c6.554 0 11.866 5.278 11.866 11.79zm-38.358 13.945h-8.687c-1.743 0-3.157-1.404-3.157-3.137v-19.461c0-1.732 1.413-3.137 3.157-3.137h8.687c1.743 0 3.157 1.404 3.157 3.137v19.461c0 1.732-1.413 3.137-3.157 3.137zm8.536-25.734h8.687c1.743 0 3.157 1.404 3.157 3.137v19.461c0 1.732-1.413 3.137-3.157 3.137h-8.687c-1.743 0-3.157-1.404-3.157-3.137v-19.461c0-1.732 1.413-3.137 3.157-3.137zm-38.358 11.79c0-6.511 5.312-11.79 11.864-11.79h.736c1.743 0 3.157 1.404 3.157 3.137v19.461c0 1.732-1.413 3.137-3.157 3.137h-5.38l.033-.561c0-4.825-3.007-8.96-7.254-10.667v-2.717h.001zm-8.27 20.491c-2.561-1.406-4.251-4.111-4.251-7.107 0-4.488 3.676-8.14 8.192-8.14 4.517 0 8.192 3.652 8.192 8.14l-.033.561h-2.792c-4.292 0-7.944 2.738-9.308 6.546zm80.354 18.998h-75.989c-.857 0-1.553-.692-1.553-1.544 0-.851.697-1.544 1.553-1.544h75.988c.857 0 1.553.692 1.553 1.544 0 .851-.697 1.544-1.553 1.544zm1.553-12.912c0 3.56-2.914 6.456-6.497 6.456h-66.102c-3.582 0-6.497-2.896-6.497-6.456v-2.807c0-3.56 2.914-6.456 6.497-6.456h66.102c3.582 0 6.497 2.896 6.497 6.456v2.807zm2.812-6.086c-1.363-3.807-5.016-6.546-9.309-6.546h-2.792l-.033-.561c0-4.488 3.676-8.14 8.192-8.14 4.517 0 8.192 3.652 8.192 8.14 0 2.997-1.69 5.702-4.25 7.107z" fill-rule="nonzero" fill="#222"/></svg>
